X: 14442
T: Galway, The
R: reel
M: 4/4
K: Gmajor
|:B|AGEG DG (3Bcd|BAGA BedB|AGED BDAD|
B~A3 BEED|E2DE GEDE|D2EG D2EG|
EDEG DEGA|(3Bcd AB G3:|
|:B|d~G3 EGDc|BGBd gdeg|ecBc (3BAG FA|
DFAd fed^c|d~G3 EGDc|BGBd gdeg|
ecBc efge|dBAB G3:|

